X: 131
T: Anything for John-Joe?
C: traditional Irish from the Sliabh Luachra area
R: reel
M: 4/4
L: 1/8
K:Dmaj
AG | "D"F2AF "G"G2BG | "D"FAAF EFDE | F2AF "G"G2BG  | "A"ABcA "D"d2AG |
FAAF "G"GBBG | "D"F2AF EFDE | F2AF "G"GB~B2 |"A" cABc "D"d2  ||
de | "D"f2df efde | faaf efde | f2af efdB  | "A"cABc "D"d2de |
"D"f2df efde | faaf efdc | defg "A"a3A  | ABcA "D"d2  |]


